img/footer-dragon.svg

<svg width="131" height="204" viewBox="0 0 131 204" fill="none" xmlns="http://www.w3.org/2000/svg">
<g clip-path="url(#clip0_13_47)" filter="url(#filter0_d_13_47)">
<path d="M122.774 75.4048C125.197 89.4167 110.331 85.6845 110.331 85.6845C104.11 68.1369 94.1559 69.7738 94.1559 69.7738C101.949 75.4703 102.538 80.3155 102.538 80.3155C81.7789 65.5834 53.5541 77.4345 42.8142 83C36.7895 74.4881 24.6089 55.4345 28.9311 46.7917C34.6284 35.4643 46.2196 41.9464 46.2196 41.9464C69.6638 41.5536 68.3541 33.1726 68.3541 33.1726C62.1328 38.0179 43.7966 33.1726 43.7966 33.1726C59.7098 33.1726 66.455 26.6905 66.455 26.6905C54.6019 29.6369 41.3735 17 41.3735 17C36.5275 -7.81546 14.1311 2.72621 14.1311 2.72621C28.1452 0.303591 24.4125 15.1667 24.4125 15.1667C6.86203 21.3869 8.49921 31.3393 8.49921 31.3393C14.1965 23.5476 19.0426 22.9584 19.0426 22.9584C2.99832 45.5476 18.4532 76.9762 23.0373 85.1607C14.655 90.9881 -4.99106 103.821 -13.8318 99.3691C-25.161 93.6726 -18.6778 82.0834 -18.6778 82.0834C-18.9397 58.6429 -27.322 59.9524 -27.322 59.9524C-22.476 66.1726 -27.322 84.506 -27.322 84.506C-27.322 68.5953 -33.8052 61.8512 -33.8052 61.8512C-30.8583 73.7024 -43.4973 86.9286 -43.4973 86.9286C-68.3167 91.7738 -57.7734 114.167 -57.7734 114.167C-60.1964 100.155 -45.3309 103.887 -45.3309 103.887C-39.1097 121.435 -29.1557 119.798 -29.1557 119.798C-36.9486 114.101 -37.538 109.256 -37.538 109.256C-15.5999 124.839 14.7204 110.696 23.8886 105.72C30.0443 114.56 41.5045 132.762 37.2479 141.208C31.5505 152.536 19.9594 146.054 19.9594 146.054C-3.48487 146.315 -2.17513 154.696 -2.17513 154.696C4.04611 149.851 22.3824 154.696 22.3824 154.696C6.46912 154.696 -0.27602 161.179 -0.27602 161.179C11.5771 158.232 24.8054 170.869 24.8054 170.869C29.6514 195.685 52.0479 185.143 52.0479 185.143C38.0337 187.565 41.7665 172.702 41.7665 172.702C59.3169 166.482 57.6797 156.53 57.6797 156.53C51.9824 164.321 47.1364 164.911 47.1364 164.911C62.8532 142.845 48.3806 112.268 43.4691 103.298C52.3753 97.0774 70.3842 85.9464 78.701 90.1369C90.0302 95.8333 83.547 107.423 83.547 107.423C83.8089 130.863 92.1912 129.554 92.1912 129.554C87.3452 123.333 92.1912 105 92.1912 105C92.1912 120.911 98.6744 127.655 98.6744 127.655C95.7275 115.804 108.366 102.577 108.366 102.577C133.317 97.7976 122.774 75.4048 122.774 75.4048Z" fill="url(#paint0_linear_13_47)"/>
</g>
<defs>
<filter id="filter0_d_13_47" x="-66" y="0.5" width="197" height="203" filterUnits="userSpaceOnUse" color-interpolation-filters="sRGB">
<feFlood flood-opacity="0" result="BackgroundImageFix"/>
<feColorMatrix in="SourceAlpha" type="matrix" values="0 0 0 0 0 0 0 0 0 0 0 0 0 0 0 0 0 0 127 0" result="hardAlpha"/>
<feOffset dy="10"/>
<feGaussianBlur stdDeviation="3"/>
<feComposite in2="hardAlpha" operator="out"/>
<feColorMatrix type="matrix" values="0 0 0 0 0 0 0 0 0 0 0 0 0 0 0 0 0 0 0.25 0"/>
<feBlend mode="normal" in2="BackgroundImageFix" result="effect1_dropShadow_13_47"/>
<feBlend mode="normal" in="SourceGraphic" in2="effect1_dropShadow_13_47" result="shape"/>
</filter>
<linearGradient id="paint0_linear_13_47" x1="32.4938" y1="0.501953" x2="32.4938" y2="187.367" gradientUnits="userSpaceOnUse">
<stop stop-color="#C0B7E8"/>
<stop offset="1" stop-color="#8176AF"/>
</linearGradient>
<clipPath id="clip0_13_47">
<rect width="185" height="187" fill="white" transform="translate(-60 0.5)"/>
</clipPath>
</defs>
</svg>

<svg width="131" height="204" fill="none" xmlns="http://www.w3.org/2000/svg"><g clip-path="url(#a)" filter="url(#b)"><path d="M122.774 75.405c2.423 14.012-12.443 10.28-12.443 10.28-6.221-17.548-16.175-15.911-16.175-15.911 7.793 5.696 8.382 10.541 8.382 10.541-20.76-14.732-48.984-2.88-59.724 2.685-6.025-8.512-18.205-27.566-13.883-36.208 5.697-11.328 17.289-4.846 17.289-4.846 23.444-.392 22.134-8.773 22.134-8.773-6.221 4.845-24.557 0-24.557 0 15.913 0 22.658-6.483 22.658-6.483C54.602 29.637 41.374 17 41.374 17 36.528-7.815 14.13 2.726 14.13 2.726c14.014-2.422 10.282 12.44 10.282 12.44C6.862 21.387 8.499 31.34 8.499 31.34c5.697-7.791 10.544-8.38 10.544-8.38-16.045 22.589-.59 54.017 3.994 62.202-8.382 5.827-28.028 18.66-36.869 14.208-11.329-5.696-4.846-17.286-4.846-17.286-.262-23.44-8.644-22.13-8.644-22.13 4.846 6.22 0 24.553 0 24.553 0-15.91-6.483-22.655-6.483-22.655 2.947 11.851-9.692 25.078-9.692 25.078-24.82 4.845-14.276 27.238-14.276 27.238-2.423-14.012 12.442-10.28 12.442-10.28 6.221 17.548 16.175 15.911 16.175 15.911-7.793-5.697-8.382-10.542-8.382-10.542 21.938 15.583 52.258 1.44 61.427-3.536 6.155 8.84 17.616 27.042 13.359 35.488-5.697 11.328-17.289 4.846-17.289 4.846-23.444.261-22.134 8.642-22.134 8.642 6.221-4.845 24.557 0 24.557 0-15.913 0-22.658 6.483-22.658 6.483 11.853-2.947 25.081 9.69 25.081 9.69 4.846 24.816 27.243 14.274 27.243 14.274-14.014 2.422-10.282-12.441-10.282-12.441 17.55-6.22 15.914-16.172 15.914-16.172-5.698 7.791-10.544 8.381-10.544 8.381 15.717-22.066 1.245-52.643-3.667-61.613 8.906-6.22 26.915-17.352 35.232-13.161 11.33 5.696 4.846 17.286 4.846 17.286.262 23.44 8.644 22.131 8.644 22.131-4.846-6.221 0-24.554 0-24.554 0 15.911 6.483 22.655 6.483 22.655-2.947-11.851 9.692-25.078 9.692-25.078 24.951-4.78 14.408-27.172 14.408-27.172z" fill="url(#c)"/></g><defs><linearGradient id="c" x1="32.494" y1=".502" x2="32.494" y2="187.367" gradientUnits="userSpaceOnUse"><stop stop-color="#C0B7E8"/><stop offset="1" stop-color="#8176AF"/></linearGradient><clipPath id="a"><path fill="#fff" transform="translate(-60 .5)" d="M0 0h185v187H0z"/></clipPath><filter id="b" x="-66" y=".5" width="197" height="203" filterUnits="userSpaceOnUse" color-interpolation-filters="sRGB"><feFlood flood-opacity="0" result="BackgroundImageFix"/><feColorMatrix in="SourceAlpha" values="0 0 0 0 0 0 0 0 0 0 0 0 0 0 0 0 0 0 127 0" result="hardAlpha"/><feOffset dy="10"/><feGaussianBlur stdDeviation="3"/><feComposite in2="hardAlpha" operator="out"/><feColorMatrix values="0 0 0 0 0 0 0 0 0 0 0 0 0 0 0 0 0 0 0.25 0"/><feBlend in2="BackgroundImageFix" result="effect1_dropShadow_13_47"/><feBlend in="SourceGraphic" in2="effect1_dropShadow_13_47" result="shape"/></filter></defs></svg>
